X:1
T:Studio Ghibli Album
T:Castle in the Sky 
T:Composed by Joe Hisaishi Arranged by Sean Yang 
C:Sean Yang
%%score { ( 1 3 ) | ( 2 4 ) }
L:1/8
Q:1/4=100
M:4/4
K:Eb
V:1 treble nm="Piano" snm="Pno."
V:3 treble 
V:2 bass 
V:4 bass 
V:1
"^Andante con rubato"!p! (g2 | e'3 e' d'c'b=a | b3) (g c'bag |"_rit." g3!>(! f f4)!>)! | %4
 (a3 g g4- |"^a tempo" !fermata!g6) (c!mp!d | e2 d e2 g3 | d4- d3) (G | c2 B c2 e2 B- | B6) (G2 | %10
 A3 G A e3 | G4- G)!>(!(eee!>)! | d3 =A A2 d2 | [=Ad]4 =B2) (cd | [ce]3 d e2 g2 | [Bd]8) | %16
 (c3 B c2 e2 | B6) (G2 | A2 ed- d e3 | (3[df]2 [df]2 [dg]2 [ce]4) | (edcc d2 =B2 | %21
 !fermata!c6) (ef | !arpeggio![GBeg]3 f g2 b2 | f4- f3) (B | e3 d e2 g2 | g8) | (cd e2) (deff) | %27
 (e3 B B2) (Be |"_cresc." !arpeggio![Aca]2 g2 [df]2 [ce]2 | [G=Bdg]8) | z2 z2 z2 z!f! [Gg] | %31
!mp! (!arpeggio![cegc']4 [Bdgb]3 [Bb] | gf e2- e3) (e | f2 ef- fb- b2 | %34
 !arpeggio![Beg]4- [Beg]3) (g | !arpeggio![egc']4 [Bdgb]4 | !arpeggio![ceg]f e2- e3) (e | %37
 !arpeggio![Ad]2 ef- f2 d2 | c2) (fg c') z ([cf-][df]) | e3 d e3 g | d8 | (c3 B c2 e2 | (B7) G | %43
 A2 ed- d e3 | (3!arpeggio![cdf]2 f2 g2 e4) | (edcc d2 =B2 | c6) (eg | [ac'e']8- | %48
 [ac'e']4) (3([bd']2 e'2 f'2 | [ac'e']3 d'/e'/ c'4- | c'4) (3([bd']2 e'2 f'2 | [dfb]4 b3) (B | %52
 c2 Bc (3[bd']2 e'2 f'2 | [dfb]4) (b3 c/d/ | [Bce]3 c (3d2 c2 d2 |"_rit." [Bce]3 d d3 e/f/ | %56
 g6) (g2"_a tempo" | !arpeggio![cegc']4 b4 | gf e2- e3) (e | [cdf]2 ef- fb- b2 | %60
 [Beg]4- [Beg]2) (g2 | !arpeggio![egc']4 b3 e | gf e2- e3 e | [Adf]2 ef- f2 d2 | c6) (cd | %65
 !arpeggio![Gce]3 d e2 g2 | d8) | z gfg c'gfg | cgfg c'gfg | !arpeggio![d'e'g']8 |] %70
V:2
 z2 | z8 | z8 | z8 | z8 | z8 | C,4 [E,G,]4 | B,,G,DG B4 | A,,E,A,C E4 | G,,E,B,E B4 | %10
 F,,C,F,A, C4 | E,,C,G,C E4 | D,,=A,,C,^F, C4 | G,,F,=A,C [DG]2 z2 | C,G,CE- [EG]4 | B,,G,DG d4 | %16
 A,,E,A,B, CECA, | G,B,EF G4 | F,CFG A4 | C,G,CD E2 G2 | D,=A,- A,2 G,,F,=B,[DF] | %21
 C,G,DE !fermata!c2 [B,D]2 | E,,B,,E,G, B,EB,E, | D,B,DF B4 | C,G,CD E G3 | B,,G,DB, G4 | %26
 z C3 z [B,D]3 | G,,B,,E,F, E,E, E,2 | F,,C,F,G, A,[CE]-[CE][F,A,C] | G,, F,2 F,2 F,2 F, | %30
 G,,G,,- G,,2 G,,D, G,,2 | C,G,DE Gc C2 | A,,E,A,B, CE c2 | B,,D,F,B, E2 D2 | E,B,EB D2 [=B,DG]2 | %35
 C,G,DE GcCB, | A,EAE c2 A,2 | B,8 | C,G,CG, E4 | C,G,DC EG C2 | B,DEG- G4 | A,E G2- G2 A,2 | %42
 G,DEB z2 z2 | F,C F4 F,2 | C,G,CD ECEB, | A,E G2 [FG=B]4 | C,G,CD EG z2 | z8 | z8 | z8 | z8 | z8 | %52
 z8 | z8 | z8 | z8 | z8 | C,G,CD EGB[EG] | A,,E,A,B, CE c2 | B,,D,F,B, E2 B,,2 | %60
 E,B,EF G2 [=B,DG]2 | C,G,CD EG B2 | A,,E,A,B, CA, c2 | B,,D,F,A, F2 B,,2 | C,G,F,G, CG,F,G, | %65
 C,,8 | (B,,G,B,D d4) |!8vb(! [C,,,C,,]8-!8vb)! | [C,,C,]8- | [C,,C,]8 |] %70
V:3
 x2 | CG e2 D=A d2 | G,D B2 A,E c2 | =A,F c2- c4 | =B,FA=B d4- | d6 x2 | x8 | x8 | x8 | x8 | x8 | %11
 x8 | x8 | x8 | x8 | x8 | x8 | x8 | x8 | x8 | x8 | x8 | x8 | x8 | x8 | x8 | A4 B4 | x8 | x8 | %29
 z CCC CCCC | [G,=B,][G,B,][G,B,][G,B,] [G,C][G,C][G,D] z | x8 | x8 | x8 | z4 [df]4 | x8 | x8 | %37
 f2 z2 z4 | x8 | x8 | x8 | x8 | z4 (bB E2) | x8 | x8 | x8 | x8 | A,EAc g4 | A,EFB d4 | %49
 A,E G2- Gc g2 | A,FAd- d2 A,2 | G,DFB- B2 F2 | A,E- E4 A,2 | G,DGB- BBG,-G, | EC G2- G2 G,2 | %55
 B,F A2- A2 F2 | =B,Gdg !fermata!d'4 | x8 | x8 | z4 z2 Bd | x8 | x8 | x8 | x8 | x8 | x8 | %66
 z4 z GAB | !arpeggio![GAc]8- | [GAc]8 | x8 |] %70
V:4
 x2 | x8 | x8 | x8 | x8 | x8 | x8 | x8 | x8 | x8 | x8 | x8 | x8 | x8 | x8 | x8 | x8 | x8 | x8 | %19
 x8 | x8 | x8 | x8 | x8 | x8 | x8 | A,,3 A,, B,,3 B,, | z8 | x8 | x8 | x8 | x8 | x8 | x8 | x8 | %35
 x8 | x8 | x8 | x8 | x8 | x8 | x8 | x8 | x8 | x8 | x8 | x8 | x8 | x8 | x8 | x8 | x8 | x8 | x8 | %54
 x8 | x8 | x8 | x8 | x8 | x8 | x8 | x8 | x8 | x8 | x8 | x8 | x8 |!8vb(! x8!8vb)! | x8 | x8 |] %70

